svg/sprite/android.svg

<svg width="21px" height="25px" viewBox="0 0 21 20" version="1.1" xmlns="http://www.w3.org/2000/svg" xmlns:xlink="http://www.w3.org/1999/xlink">
        <path d="M4.46591308,7.42857143 L3.71428571,7.42857143 L3.71428571,12.6241419 L3.72575247,12.6241419 L3.72575247,18.0736929 C3.72575247,18.4902059 4.05736366,18.8279038 4.46591308,18.8279038 L6.04703077,18.8279038 L6.04703077,22.1815026 C6.04703077,22.9227034 6.63645902,23.5238095 7.36367329,23.5238095 C8.09088756,23.5238095 8.68031581,22.9227034 8.68031581,22.1815026 L8.68031581,18.8279038 L11.1290231,18.8279038 L11.1290231,22.1815026 C11.1290231,22.9227034 11.7184513,23.5238095 12.4456656,23.5238095 C13.1728798,23.5238095 13.762493,22.9227034 13.762493,22.1815026 L13.762493,18.8279038 L15.3436107,18.8279038 C15.7521602,18.8279038 16.0834014,18.4902059 16.0834014,18.0736929 L16.0834014,12.6241419 L16.0952381,12.6241419 L16.0952381,7.42857143 L4.46591308,7.42857143"/>
        <path d="M18.5714286,7.42857143 C17.887694,7.42857143 17.3333333,8.02619501 17.3333333,8.76328908 L17.3333333,14.7607079 C17.3333333,15.497802 17.887694,16.0952381 18.5714286,16.0952381 C19.2551632,16.0952381 19.8095238,15.497802 19.8095238,14.7607079 L19.8095238,8.76328908 C19.8095238,8.02619501 19.2551632,7.42857143 18.5714286,7.42857143"/>
        <path d="M1.23800829,7.42857143 C0.554399553,7.42857143 0,8.02619501 0,8.76328908 L0,14.7607079 C0,15.497802 0.554399553,16.0952381 1.23800829,16.0952381 C1.92196482,16.0952381 2.47619048,15.497802 2.47619048,14.7607079 L2.47619048,8.76328908 C2.47619048,8.02619501 1.92196482,7.42857143 1.23800829,7.42857143"/>
        <path d="M12.9158006,1.63570625 L13.9825131,0.170862916 C14.0047052,0.140557064 13.9728158,0.0817600817 13.9112746,0.0392955945 C13.850293,-0.00280594843 13.7824113,-0.0127869176 13.7602192,0.0177004065 L12.6588198,1.53027092 L12.6582604,1.53027092 C11.9141724,1.24717434 11.0059748,1.07114634 9.90382946,1.0675169 C8.79627597,1.06388745 7.88639999,1.23447129 7.13858226,1.51557168 L6.0479992,0.0177004065 C6.02562061,-0.0127869176 5.95792539,-0.00280594843 5.89713023,0.0392955945 C5.83558912,0.0817600817 5.80369964,0.140557064 5.82570525,0.170862916 L6.87899067,1.61737756 C3.80193517,2.94030967 3.71428571,6.19047619 3.71428571,6.19047619 L16.0952381,6.19047619 C16.0952381,6.19047619 15.9721559,2.96952669 12.9158006,1.63570625 L12.9158006,1.63570625 Z M6.80874903,4.95238095 C6.46784671,4.95238095 6.19047619,4.67501043 6.19047619,4.33255856 C6.19047619,3.99010668 6.46784671,3.71428571 6.80874903,3.71428571 C7.15120091,3.71428571 7.42857143,3.99010668 7.42857143,4.33255856 C7.42857143,4.67501043 7.15120091,4.95238095 6.80874903,4.95238095 L6.80874903,4.95238095 Z M12.9992252,4.95238095 C12.6567733,4.95238095 12.3809524,4.67501043 12.3809524,4.33255856 C12.3809524,3.99010668 12.6567733,3.71428571 12.9992252,3.71428571 C13.3416771,3.71428571 13.6190476,3.99010668 13.6190476,4.33255856 C13.6190476,4.67501043 13.3416771,4.95238095 12.9992252,4.95238095 L12.9992252,4.95238095 Z"/>
</svg>

<svg width="21" height="25" viewBox="0 0 21 20" xmlns="http://www.w3.org/2000/svg"><path d="M4.466 7.429h-.752v5.195h.012v5.45c0 .416.331.754.74.754h1.581v3.354c0 .74.59 1.342 1.317 1.342a1.33 1.33 0 0 0 1.316-1.342v-3.354h2.449v3.354c0 .74.59 1.342 1.317 1.342a1.33 1.33 0 0 0 1.316-1.342v-3.354h1.582c.408 0 .74-.338.74-.754v-5.45h.011V7.43H4.465m14.106-.001c-.683 0-1.238.597-1.238 1.334v5.998c0 .737.555 1.334 1.238 1.334.684 0 1.239-.597 1.239-1.334V8.763c0-.737-.555-1.334-1.239-1.334m-17.333 0C.554 7.429 0 8.026 0 8.763v5.998c0 .737.554 1.334 1.238 1.334.684 0 1.238-.597 1.238-1.334V8.763c0-.737-.554-1.334-1.238-1.334m11.678-5.793L13.983.17c.022-.03-.01-.09-.072-.132-.06-.042-.129-.052-.15-.021L12.658 1.53c-.745-.283-1.653-.459-2.755-.462-1.108-.004-2.018.166-2.765.448L6.048.018c-.022-.03-.09-.02-.15.021-.062.043-.094.102-.072.132l1.053 1.446C3.802 2.94 3.714 6.19 3.714 6.19h12.381s-.123-3.22-3.18-4.554zM6.809 4.952a.62.62 0 1 1 .002-1.238.62.62 0 0 1-.002 1.238zm6.19 0a.618.618 0 1 1 0-1.236.618.618 0 0 1 0 1.236z"/></svg>
